remix/Device/usb-line.svg

<svg viewBox="0 0 24 24" fill="currentColor" xmlns="http://www.w3.org/2000/svg"><path d="M12 1L15 6H13V13.381L16 11.882L15.999 11H15V7H19V11H17.999L18 13.118L13 15.618L13.0009 17.171C14.1656 17.5831 15 18.6941 15 20C15 21.6569 13.6569 23 12 23C10.3431 23 9 21.6569 9 20C9 18.813 9.68934 17.7871 10.6895 17.3006L6 14L5.99892 11.7318C5.40172 11.3858 5 10.7398 5 10C5 8.89543 5.89543 8 7 8C8.10457 8 9 8.89543 9 10C9 10.7403 8.59783 11.3866 8.00007 11.7324L8 13L11 15.086V6H9L12 1ZM12 19C11.4477 19 11 19.4477 11 20C11 20.5523 11.4477 21 12 21C12.5523 21 13 20.5523 13 20C13 19.4477 12.5523 19 12 19Z"/></svg>

<svg viewBox="0 0 24 24" xmlns="http://www.w3.org/2000/svg"><path fill="none" d="M0 0h24v24H0Z"/><path d="M12 1l3 5h-2v7.381l3-1.5 -.01-.89h-1v-4h4v4h-1.01l0 2.11 -5 2.5v1.55c1.16.41 2 1.52 2 2.82 0 1.657-1.343 3-3 3s-3-1.343-3-3c0-1.19.69-2.22 1.69-2.7l-4.69-3.3 -.01-2.27c-.6-.35-1-1-1-1.74 0-1.11.89-2 2-2 1.1 0 2 .89 2 2 0 .74-.41 1.38-1 1.73v1.26l3 2.08V5.945h-2l3-5Zm0 18c-.56 0-1 .44-1 1 0 .55.44 1 1 1 .55 0 1-.45 1-1 0-.56-.45-1-1-1Z"/></svg>
